X:374
T:Banks of the Shannon, The
T:Paddy Taylor's Jig
R:jig
D:Jacqueline McCarthy: The Hidden Note
Z:id:hn-jig-374
M:6/8
L:1/8
K:Dmix
~A3 ~g3|~a3 efg|~f3 ged|cAG EFG|
~A3 ~g3|~a3 efg|fed cAG|Adc d3:|
|:fed edc|~d3 cAG|~A3 DFA|fed ecA|
fed edc|ded cde|fed cAG|Adc d3:|

